X:229
T:B229-  Ianthe the lovely
Q:1/4=120
L:1/4
M:C|
K:Gm
G/2|BB/2G/2dd/2d/2|(e/2d/2) c/2B/2 A3/2B/2|\
cB/2A/2 B/2d/2 (g/2d/2)|BA/2G/2G3/2||A/2|\
BB/2c/2dd/2e/2|fe/2d/2c3/2F/2|\
BB/2c/2 (d/2e/2) f/2e/2|dc/2B/2B":s:"(e/2c/2)|\
BB/2B/2cc/2d/2|(e/2d/2) c/2B/2Ag/2^f/2|\
gg/2d/2Bc/2d/2|(e/2d/2) (c/2B/2Ad/2c/2|\
BA/2G/2G3/2|]

